svg/u1f3bc.svg

<svg viewBox="0 0 128 128" xmlns="http://www.w3.org/2000/svg">
  <g>
    <g>
      <path d="M21.96,95.36V83.09h16.99c-0.43-1.3-0.74-2.63-0.91-4H21.96V63.5h19.25c0.68-1.33,1.46-2.66,2.35-4 h-21.6V44.58h35.55c0.67-0.54,1.31-1.06,1.89-1.5l-0.52-2.5H21.96V25.66h33.83c-0.23-1.39-0.39-2.72-0.49-4H3.48v77.69h52.44 c-2.81-0.97-5.41-2.33-7.72-4H21.96z" fill="#546E7A"/>
      <path d="M81.65,99.36h42.87v-4H84.86c-1.09,0.94-2.24,1.77-3.44,2.46C81.49,98.27,81.57,98.79,81.65,99.36z " fill="#546E7A"/>
      <path d="M87.95,25.66h36.57v-4H87.99C88.09,23.02,88.07,24.36,87.95,25.66z" fill="#546E7A"/>
      <path d="M88.21,63.5h36.32v-4H83.54C85.29,60.52,86.85,61.85,88.21,63.5z" fill="#546E7A"/>
      <path d="M124.52,44.58v-4H82.16c-0.95,1.41-1.96,2.75-2.99,4H124.52z" fill="#546E7A"/>
      <path d="M124.52,83.09v-4h-31.4c-0.08,1.46-0.3,2.79-0.6,4H124.52z" fill="#546E7A"/>
    </g>
    <path d="M87.18,67.19c-4.49-7.14-11.23-7.45-16.23-6.99l-1.85-9.41c8.86-8.39,19.57-20.29,14.8-34.37 c-4.07-12-10.39-12.14-13.55-12.14c-3.16,0-15.54,0.84-11.3,22.49l3.69,17.57C57.3,48.29,39.7,62.38,40.92,77.75 c0.84,11.88,13.23,21.08,26.64,20.2c1.41-0.08,4.49-0.3,5.64-0.39c0,0,3.08,10.71-1.54,16.99c-2.84,3.86-7.59,5.05-11.72,3.61 c2.74-1.37,4.51-4.19,4.51-7.3c-0.41-10.83-15.94-10.83-16.35,0c0,7.81,5.34,12.85,16.5,12.85c4.49,0,8.84-3.26,11.09-6.21 c5.94-7.78,2.32-21.37,2.32-21.37C85.79,92.96,95.02,81.22,87.18,67.19z M71.43,12.75c4.02-1.71,10.35,1.44,8.96,8.84 c-1.28,6.8-7.6,13.83-13.21,19.45l-2.23-11.36C63.41,20.19,66.39,14.89,71.43,12.75z M66.08,61.29 c-7.06,2.29-10.8,8.55-9.55,16.06c1.27,7.59,5.38,9.85,8.82,10.96c0.06,0.02,2.44,0.68,2.67-0.81c0.12-0.74-0.74-1.17-1.53-1.67 c-0.64-0.4-1.38-1.16-2.09-1.86c-3.95-3.91-3.69-11.35,3.23-14.37l4.63,23.14c-10.28,2.31-21.34-3.27-21.72-14.35 c-0.63-10.83,5.76-17.09,14.3-24.38L66.08,61.29z M83.39,83.33c-0.8,2.58-2.54,5.53-6.37,7.71l-4.09-22.5 C82.55,68.19,85.13,77.4,83.39,83.33z" fill="#546E7A"/>
  </g>
</svg>

<svg viewBox="0 0 128 128" xmlns="http://www.w3.org/2000/svg">
  <defs/>
  <path d="M21.96,95.36 L21.96,83.09 L38.95,83.09 C38.52,81.79 38.21,80.46 38.04,79.09 L21.96,79.09 L21.96,63.5 L41.21,63.5 C41.89,62.17 42.67,60.84 43.56,59.5 L21.96,59.5 L21.96,44.58 L57.51,44.58 C58.18,44.04 58.82,43.52 59.4,43.08 L58.88,40.58 L21.96,40.58 L21.96,25.66 L55.79,25.66 C55.56,24.27 55.4,22.94 55.3,21.66 L3.48,21.66 L3.48,99.35 L55.92,99.35 C53.11,98.38 50.51,97.02 48.2,95.35 L21.96,95.35 Z" fill="#546E7A"/>
  <path d="M81.65,99.36 L124.52,99.36 L124.52,95.36 L84.86,95.36 C83.77,96.3 82.62,97.13 81.42,97.82 C81.49,98.27 81.57,98.79 81.65,99.36 Z" fill="#546E7A"/>
  <path d="M87.95,25.66 L124.52,25.66 L124.52,21.66 L87.99,21.66 C88.09,23.02 88.07,24.36 87.95,25.66 Z" fill="#546E7A"/>
  <path d="M88.21,63.5 L124.53,63.5 L124.53,59.5 L83.54,59.5 C85.29,60.52 86.85,61.85 88.21,63.5 Z" fill="#546E7A"/>
  <path d="M124.52,44.58 L124.52,40.58 L82.16,40.58 C81.21,41.99 80.2,43.33 79.17,44.58 L124.52,44.58 Z" fill="#546E7A"/>
  <path d="M124.52,83.09 L124.52,79.09 L93.12,79.09 C93.04,80.55 92.82,81.88 92.52,83.09 L124.52,83.09 Z" fill="#546E7A"/>
  <path d="M87.18,67.19 C82.69,60.05 75.95,59.74 70.95,60.2 L69.1,50.79 C77.96,42.4 88.67,30.5 83.9,16.42 C79.83,4.42 73.51,4.28 70.35,4.28 C67.19,4.28 54.81,5.12 59.05,26.77 L62.74,44.34 C57.3,48.29 39.7,62.38 40.92,77.75 C41.76,89.63 54.15,98.83 67.56,97.95 C68.97,97.87 72.05,97.65 73.2,97.56 C73.2,97.56 76.28,108.27 71.66,114.55 C68.82,118.41 64.07,119.6 59.94,118.16 C62.68,116.79 64.45,113.97 64.45,110.86 C64.04,100.03 48.51,100.03 48.1,110.86 C48.1,118.67 53.44,123.71 64.6,123.71 C69.09,123.71 73.44,120.45 75.69,117.5 C81.63,109.72 78.01,96.13 78.01,96.13 C85.79,92.96 95.02,81.22 87.18,67.19 Z M71.43,12.75 C75.45,11.04 81.78,14.19 80.39,21.59 C79.11,28.39 72.79,35.42 67.18,41.04 L64.95,29.68 C63.41,20.19 66.39,14.89 71.43,12.75 Z M66.08,61.29 C59.02,63.58 55.28,69.84 56.53,77.35 C57.8,84.94 61.91,87.2 65.35,88.31 C65.41,88.33 67.79,88.99 68.02,87.5 C68.14,86.76 67.28,86.33 66.49,85.83 C65.85,85.43 65.11,84.67 64.4,83.97 C60.45,80.06 60.71,72.62 67.63,69.6 L72.26,92.74 C61.98,95.05 50.92,89.47 50.54,78.39 C49.91,67.56 56.3,61.3 64.84,54.01 L66.08,61.29 Z M83.39,83.33 C82.59,85.91 80.85,88.86 77.02,91.04 L72.93,68.54 C82.55,68.19 85.13,77.4 83.39,83.33 Z" fill="#546E7A"/>
</svg>
